webapp/src/assets/icons/cloudproviders/aws/architecture_services/cloudfront.svg

<?xml version="1.0" encoding="UTF-8"?>
<svg width="24px" height="24px" viewBox="0 0 24 24" version="1.1" xmlns="http://www.w3.org/2000/svg" xmlns:xlink="http://www.w3.org/1999/xlink">
    <title>Icon-Architecture/16/Arch_Amazon-CloudFront_16</title>
    <g id="Icon-Architecture/16/Arch_Amazon-CloudFront_16" stroke="none" stroke-width="1" fill="none" fill-rule="evenodd">
        <path d="M16,15.4980737 C16,15.2219556 15.775,14.9978597 15.5,14.9978597 C15.225,14.9978597 15,15.2219556 15,15.4980737 C15,15.7741919 15.225,15.9982877 15.5,15.9982877 C15.775,15.9982877 16,15.7741919 16,15.4980737 M17,15.4980737 C17,16.3254277 16.327,16.9987158 15.5,16.9987158 C14.673,16.9987158 14,16.3254277 14,15.4980737 C14,14.6707197 14.673,13.9974316 15.5,13.9974316 C16.327,13.9974316 17,14.6707197 17,15.4980737 M9,11.4963614 C9,11.2202433 8.775,10.9961474 8.5,10.9961474 C8.225,10.9961474 8,11.2202433 8,11.4963614 C8,11.7724796 8.225,11.9965755 8.5,11.9965755 C8.775,11.9965755 9,11.7724796 9,11.4963614 M10,11.4963614 C10,12.3237155 9.327,12.9970035 8.5,12.9970035 C7.673,12.9970035 7,12.3237155 7,11.4963614 C7,10.6690074 7.673,9.99571934 8.5,9.99571934 C9.327,9.99571934 10,10.6690074 10,11.4963614 M12,7.49464918 C12,7.77076733 12.225,7.99486321 12.5,7.99486321 C12.775,7.99486321 13,7.77076733 13,7.49464918 C13,7.21853103 12.775,6.99443515 12.5,6.99443515 C12.225,6.99443515 12,7.21853103 12,7.49464918 M11,7.49464918 C11,6.66729517 11.673,5.99400708 12.5,5.99400708 C13.327,5.99400708 14,6.66729517 14,7.49464918 C14,8.32200319 13.327,8.99529128 12.5,8.99529128 C11.673,8.99529128 11,8.32200319 11,7.49464918 M19,11.9965755 C19,9.73960976 17.903,7.63971125 16.101,6.33215177 C15.917,6.27312651 15.407,6.42319072 14.566,6.78434525 C14.415,6.84837265 14.287,6.90239576 14.197,6.93540989 L13.857,5.99400708 C13.935,5.96699552 14.044,5.91897498 14.173,5.86395143 C14.394,5.76991119 14.611,5.67987267 14.823,5.59983842 C13.939,5.20867105 12.979,4.99357901 12,4.99357901 C11.313,4.99357901 10.642,5.09162097 10.002,5.28470358 C9.956,5.29770915 9.915,5.32071899 9.87,5.33472499 C10.22,5.46578106 10.637,5.6348534 11.132,5.85694844 L10.724,6.76933883 C9.518,6.22810725 8.828,6.02702121 8.507,5.9519891 C6.692,7.00443943 5.429,8.82721936 5.104,10.9291187 C5.426,10.8871007 5.751,10.86209 6.097,10.8530862 L6.122,11.8535143 C5.725,11.8635185 5.363,11.9055365 5.001,11.9645618 C5.001,11.9745661 5,11.9855708 5,11.9965755 C5,14.29756 6.125,16.4174671 7.976,17.7180236 C7.775,17.0167235 7.604,16.1773644 7.604,15.3310022 C7.604,15.1749354 7.599,15.0098648 7.594,14.8427933 C7.578,14.3655891 7.562,13.8723781 7.65,13.4231859 L8.631,13.6162685 C8.564,13.9534128 8.579,14.388599 8.593,14.8097792 C8.599,14.9888558 8.604,15.1639307 8.604,15.3310022 C8.604,16.2293866 8.853,17.3548682 9.277,18.4433339 C10.504,18.9595548 11.859,19.1086186 13.154,18.8935266 C13.266,18.6874384 13.402,18.4783489 13.546,18.2662582 C13.76,17.9501229 13.981,17.6239833 14.067,17.3278566 L15.028,17.6069761 C14.938,17.9191096 14.774,18.2012303 14.601,18.4743472 C15.199,18.2352449 15.768,17.934116 16.279,17.5369461 C18.009,16.1983734 19,14.1785091 19,11.9965755 M20,11.9965755 C20,14.4906426 18.867,16.7986302 16.892,18.3272843 C16.193,18.8695163 15.416,19.2876952 14.582,19.5688155 C13.76,19.8539375 12.89,20 12,20 C10.686,20 9.381,19.6718596 8.225,19.0525946 C5.619,17.6569975 4,14.9538408 4,11.9965755 C4,11.8315048 4.004,11.6674346 4.018,11.5063657 C4.212,8.17393984 6.502,5.28270273 9.715,4.32629349 C11.729,3.71903366 14.052,3.96513896 15.91,5.01658886 C18.433,6.43019372 20,9.10433794 20,11.9965755 M11.075,8.93526559 L10.419,8.18194326 C9.903,8.63013503 9.765,8.86023349 9.534,9.24039615 C9.467,9.35144367 9.389,9.48149932 9.285,9.64056738 L10.123,10.1858007 C10.233,10.0157279 10.317,9.87766883 10.39,9.75861789 C10.594,9.42147363 10.678,9.28241413 11.075,8.93526559 M10.649,11.3663058 L10.325,12.3117103 C11.438,12.6948743 12.411,13.3071362 13.387,14.2375343 L14.076,13.5132244 C12.993,12.4797822 11.904,11.7974903 10.649,11.3663058 M13.285,9.07432509 L14.121,8.52509009 C15.083,9.99271806 15.624,11.6044077 15.73,13.3161401 L14.732,13.3781666 C14.638,11.8425096 14.15,10.3938897 13.285,9.07432509" id="Amazon-CloudFront_Icon_16_Squid" fill="#8C4FFF"></path>
    </g>
</svg>

<svg width="24" height="24" xmlns="http://www.w3.org/2000/svg"><path d="M16 15.498a.5.5 0 1 0-1.002.002.5.5 0 0 0 1.002-.002m1 0c0 .827-.673 1.5-1.5 1.5s-1.5-.673-1.5-1.5.673-1.5 1.5-1.5 1.5.673 1.5 1.5m-8-4.002a.5.5 0 1 0-1.002.002A.5.5 0 0 0 9 11.496m1 0c0 .828-.673 1.501-1.5 1.501s-1.5-.673-1.5-1.5c0-.828.673-1.501 1.5-1.501s1.5.673 1.5 1.5m2-4.001a.5.5 0 1 0 1.002-.002.5.5 0 0 0-1.002.002m-1 0c0-.828.673-1.501 1.5-1.501s1.5.673 1.5 1.5c0 .828-.673 1.501-1.5 1.501s-1.5-.673-1.5-1.5m8 4.502a7.009 7.009 0 0 0-2.899-5.665c-.184-.059-.694.091-1.535.452a9.325 9.325 0 0 1-.369.151l-.34-.941c.078-.027.187-.075.316-.13.221-.094.438-.184.65-.264A6.981 6.981 0 0 0 12 4.994c-.687 0-1.358.098-1.998.29-.046.014-.087.037-.132.05.35.132.767.3 1.262.523l-.408.912c-1.206-.54-1.896-.742-2.217-.817a6.991 6.991 0 0 0-3.403 4.977c.322-.042.647-.067.993-.076l.025 1c-.397.01-.759.053-1.121.112L5 11.997a6.984 6.984 0 0 0 2.976 5.721c-.201-.701-.372-1.54-.372-2.387 0-.156-.005-.321-.01-.488-.016-.477-.032-.97.056-1.42l.981.193c-.067.337-.052.773-.038 1.194.006.179.011.354.011.521 0 .898.249 2.024.673 3.112a7.053 7.053 0 0 0 3.877.45 7.61 7.61 0 0 1 .392-.627c.214-.316.435-.642.521-.938l.961.279c-.09.312-.254.594-.427.867a6.86 6.86 0 0 0 1.678-.937A6.96 6.96 0 0 0 19 11.997m1 0a7.954 7.954 0 0 1-3.108 6.33 7.855 7.855 0 0 1-2.31 1.242A7.866 7.866 0 0 1 12 20a8.02 8.02 0 0 1-3.775-.947 7.99 7.99 0 0 1-4.207-7.547c.194-3.332 2.484-6.223 5.697-7.18 2.014-.607 4.337-.36 6.195.69a8.008 8.008 0 0 1 4.09 6.98m-8.925-3.06-.656-.754c-.516.448-.654.678-.885 1.058-.067.111-.145.241-.249.4l.838.546c.11-.17.194-.308.267-.427.204-.338.288-.477.685-.824m-.426 2.431-.324.946c1.113.383 2.086.995 3.062 1.926l.689-.725c-1.083-1.033-2.172-1.716-3.427-2.147m2.636-2.292.836-.549a9.742 9.742 0 0 1 1.609 4.791l-.998.062a8.744 8.744 0 0 0-1.447-4.304" fill="#8C4FFF" fill-rule="evenodd"/></svg>
